svgs/google_drive.svg

<svg width="24" height="24" viewBox="0 0 24 24" fill="none" xmlns="http://www.w3.org/2000/svg">
<path d="M18.8534 20.6058C19.1612 20.4227 19.4234 20.1714 19.6059 19.8519L19.9725 19.2219L21.7251 16.1863C21.9083 15.8656 22 15.5105 22 15.1554L21.9885 15.1554C21.9885 14.8003 21.8969 14.4452 21.7136 14.1245L18.8156 9.08439L15.9061 4.04429C15.7228 3.72356 15.4593 3.47156 15.15 3.28828C14.8408 3.105 14.4857 3.01337 14.1191 3.01337H9.88085C9.51587 3.01337 9.16223 3.11558 8.85388 3.28608L18.8534 20.6058Z" fill="#FFF1C0"/>
<path d="M13.3972 15.1553L2 15.1547C2 15.5098 2.09164 15.8656 2.27491 16.1863L3.51203 18.3284L4.39404 19.8519C4.57732 20.1726 4.84078 20.4246 5.15006 20.6079C5.45934 20.7912 5.81444 20.8828 6.18099 20.8828H16.704L13.3972 15.1553Z" fill="#FFF1C0"/>
<path d="M2.83472 13.1548L7.53816 5.00709L10.8475 10.739L9.45389 13.1551L2.83472 13.1548Z" fill="#FFF1C0"/>
</svg>

<svg xmlns="http://www.w3.org/2000/svg" width="24" height="24" fill="none" viewBox="0 0 24 24"><path fill="#FFF1C0" d="M18.853 20.606c.308-.183.57-.435.753-.754l.366-.63 1.753-3.036c.183-.32.275-.675.275-1.03h-.012c0-.356-.091-.71-.274-1.032l-2.898-5.04-2.91-5.04a2.08 2.08 0 0 0-.756-.756 2.013 2.013 0 0 0-1.03-.275H9.88c-.364 0-.718.103-1.026.273l10 17.32Zm-5.456-5.451H2c0 .355.092.71.275 1.031l1.237 2.142.882 1.524c.183.32.447.573.756.756.31.183.664.275 1.031.275h10.523zm-10.562-2 4.703-8.148 3.31 5.732-1.394 2.416h-6.62"/></svg>
